Numix-GalliumOS/64/actions/package-supported.svg

<?xml version="1.0" encoding="UTF-8" standalone="no"?>
<svg
   xmlns:dc="http://purl.org/dc/elements/1.1/"
   xmlns:cc="http://creativecommons.org/ns#"
   xmlns:rdf="http://www.w3.org/1999/02/22-rdf-syntax-ns#"
   xmlns:svg="http://www.w3.org/2000/svg"
   xmlns="http://www.w3.org/2000/svg"
   xmlns:sodipodi="http://sodipodi.sourceforge.net/DTD/sodipodi-0.dtd"
   xmlns:inkscape="http://www.inkscape.org/namespaces/inkscape"
   width="64"
   height="64"
   viewBox="0 0 64 64"
   id="svg2"
   version="1.1"
   inkscape:version="0.91 r"
   sodipodi:docname="package-supported.svg">
  <metadata
     id="metadata18">
    <rdf:RDF>
      <cc:Work
         rdf:about="">
        <dc:format>image/svg+xml</dc:format>
        <dc:type
           rdf:resource="http://purl.org/dc/dcmitype/StillImage" />
      </cc:Work>
    </rdf:RDF>
  </metadata>
  <defs
     id="defs16" />
  <sodipodi:namedview
     pagecolor="#ffffff"
     bordercolor="#666666"
     borderopacity="1"
     objecttolerance="10"
     gridtolerance="10"
     guidetolerance="10"
     inkscape:pageopacity="0"
     inkscape:pageshadow="2"
     inkscape:window-width="1366"
     inkscape:window-height="747"
     id="namedview14"
     showgrid="false"
     inkscape:zoom="3.6875"
     inkscape:cx="-24.813559"
     inkscape:cy="32"
     inkscape:window-x="0"
     inkscape:window-y="21"
     inkscape:window-maximized="1"
     inkscape:current-layer="svg2" />
  <path
     style="fill:#c19553"
     d="M 4 0 C 2.257812 0 0 2.257812 0 4 L 0 56 C 0 57.644531 2.355469 60 4 60 L 56 60 C 57.644531 60 60 57.644531 60 56 L 60 4 C 60 2.355469 57.644531 0 56 0 Z "
     id="path4" />
  <g
     style="fill:#fff"
     id="g6">
    <path
       style="fill-opacity:.196"
       d="M 4 0 C 2.257812 0 0 2.257812 0 4 L 0 20 C 6.773438 20 53.226562 20 60 20 L 60 4 C 60 2.355469 57.644531 0 56 0 Z "
       id="path8" />
    <path
       style="fill-opacity:.392"
       d="M 24 8 L 24 32 L 36 32 L 36 8 Z "
       id="path10" />
  </g>
  <g
     style="fill:#f1c40f;fill-opacity:1;enable-background:new"
     id="g4175"
     transform="matrix(1.999994,0,0,1.9999897,26.000066,26.000114)">
    <path
       inkscape:connector-curvature="0"
       id="path30"
       d="M 9.4312279,3.0000086 C 9.1921696,4.979682 8.0505855,5.4457015 6.4874816,4.212507 7.0242111,6.1329706 6.1472761,6.9974034 4.2312345,6.4562542 5.4620392,8.0251344 4.9835177,9.1542204 3.006236,9.3875004 4.7437342,10.365949 4.7374837,11.596541 2.999976,12.56875 c 1.9796754,0.23906 2.4456907,1.380638 1.2124987,2.943756 1.9204652,-0.53674 2.7848889,0.34018 2.2437473,2.256237 1.5688827,-1.230819 2.6979567,-0.752299 2.931251,1.224998 0.978438,-1.737558 2.209029,-1.731237 3.181246,0.0063 0.239039,-1.979698 1.380626,-2.445697 2.943746,-1.212499 -0.536752,-1.920478 0.340186,-2.784896 2.256246,-2.243757 -1.230815,-1.568952 -0.75228,-2.697991 1.225013,-2.931291 -1.737528,-0.978473 -1.731251,-2.209041 0.0063,-3.1812596 -1.979767,-0.239098 -2.445746,-1.380666 -1.212558,-2.9437903 -1.920493,0.5367453 -2.784883,-0.3401876 -2.243746,-2.256247 -1.5689,1.2308283 -2.697947,0.752295 -2.931246,-1.2249985 -0.978448,1.7374938 -2.209049,1.7312478 -3.1812461,-0.00624 z"
       style="fill:#f1c40f;fill-opacity:1" />
  </g>
</svg>

<svg xmlns="http://www.w3.org/2000/svg" viewBox="0 0 64 64">
 <path d="m 4 0 c -1.742 0 -4 2.258 -4 4 l 0 52 c 0 1.645 2.355 4 4 4 l 52 0 c 1.645 0 4 -2.355 4 -4 l 0 -52 c 0 -1.645 -2.355 -4 -4 -4 Z" style="fill:#c19553"/>
 <g style="fill:#fff">
  <path d="m 4 0 c -1.742 0 -4 2.258 -4 4 l 0 16 c 6.773 0 53.23 0 60 0 l 0 -16 c 0 -1.645 -2.355 -4 -4 -4 Z" style="fill-opacity:0.196"/>
  <path d="m 24 8 l 0 24 l 12 0 l 0 -24 Z" style="fill-opacity:0.392"/>
 </g>
 <g transform="matrix(1.999994,0,0,1.9999897,26.000066,26.000114)" style="fill:#f1c40f;fill-opacity:1;enable-background:new">
  <path d="m 9.431 3 c -0.239 1.98 -1.381 2.446 -2.944 1.212 0.537 1.92 -0.34 2.785 -2.256 2.244 1.231 1.569 0.752 2.698 -1.225 2.931 1.737 0.978 1.731 2.209 -0.006 3.181 c 1.98 0.239 2.446 1.381 1.212 2.944 1.92 -0.537 2.785 0.34 2.244 2.256 1.569 -1.231 2.698 -0.752 2.931 1.225 0.978 -1.738 2.209 -1.731 3.181 0.006 0.239 -1.98 1.381 -2.446 2.944 -1.212 -0.537 -1.92 0.34 -2.785 2.256 -2.244 -1.231 -1.569 -0.752 -2.698 1.225 -2.931 -1.738 -0.978 -1.731 -2.209 0.006 -3.181 -1.98 -0.239 -2.446 -1.381 -1.213 -2.944 -1.92 0.537 -2.785 -0.34 -2.244 -2.256 -1.569 1.231 -2.698 0.752 -2.931 -1.225 -0.978 1.737 -2.209 1.731 -3.181 -0.006 z"/>
 </g>
</svg>
